X:1
T:Sussurate
T:Sussurate
T:Gio.Girolamo Kapsperger
C:Gio.Girolamo Kapsperger
%%score 1 { ( 2 4 ) | 3 }
L:1/8
Q:1/4=120
M:4/4
K:C
V:1 treble nm="Soprano" snm="S"
V:2 treble nm="BC" snm="BC"
V:4 treble 
V:3 bass 
V:1
 Bc d2 e2 de | c2 B2 z Bcd | d2 cB AAAB | c>B d>c B4 | A3 c/c/ c2 GA | B3 B c3 d | d3 ^c d4 | %7
w: Sus- su- ra- t'au- re vo-|lan- ti, mor- mo- ran-|t'on- de tre- man- ti gio- i'e|can- ti per le val-|li,- in- trec- cia- li Pa-|stor fes- tos- ci|ba- * li,|
w: |||||||
w: |||||||
[M:3/2] z2 B2 B2 c2 d2 c2 | B2 c2 A4 G4 | z2 B2 B2 B2 A2 B2 | E2 ^F2 G2 A2 A2 A2 | %11
w: ch'al- lac- cio- te- ro|mo- r'e pre- so,|ch'al- lac- cio- te- ro|pur A- mor e pre- so,|
w: ||||
w: ||||
 z2 d2 d2 d2 d2 c2 | B2 A2 c2 B2 A4 | G12!fine! |][M:4/4] z4 z2 ee | e3 d f3 e | d2 d2 z2 ff | %17
w: ch'al- lac- cio- te- ro|pur Amor e pre- *|so.|La stag-|gion ri- den- te|bel- la, al gio-|
w: |||Ri- de'in|ciel co'i lam- p'il|so- le, e con|
w: |||Lu- sin-|ghier- r'al suon del-|l'on- de, Phi- lo-|
 e2 c4 cB | A2 A2 z2 cd | e3 d d3 c | B2 B2 z2 dd | c2 B4 BA | G2 G2 z2 GG | AB c2 c3 B | %24
w: ir og- gi- v'in-|vi- ta, l'om- bra|ta- ci- ta'e ro-|mi- ta, al can-|tar og- gi- v'ap-|pel- la, qui scher-|za- * te, qui gio-|
w: l'ur- na rug- gia-|do- sa, * l'er-|bet- te flo- ra'as-|co- sa, scuo- te'i-|gi- gli'e le vi-|o- le, * *||
w: me- la'il can- to'a-|cor- da, ne- dal|can- to suo dis-|cor- da, se dal|spe- co'ec- co ris-|pon- de, * *||
 A2 A2 z2 dA | B>G A>B G2 G2 | z2 GG AB c2 | c3 B c2 c2 :| z8!D.C.! |] %29
w: i- te, con le|vo- glie'al can- to'u- ni- te,|con le tem- * pie'in-|gir- lan- da- te.||
w: |||||
w: |||||
V:2
 [GBd][Ec] [DB]2 [EG]2 [DG]2 | [Ec]2 [GB]2 [GB]4 | [DG]2 [EG]2 [^FA]4 | [Ec]2 [FA]2 [^GB]4 | %4
 [Ec]6 [GB][DA] | [B,DG]4 [CE]2 [DB]2 | d3 ^c d4 |[M:3/2] x12 | [Ge]2 [EGc]2 [^Fd]4 [GB]4 | %9
 [DB]8 [^FA]4 | [EG]4 [GB]4 [^FA]4 | [GBd]6 [Ad]6 | d4 e4 d4 | [DGB]12 |][M:4/4] z4 [EGc]4 | %15
 [Gc]2 [DG]2 [EA]2 [EG]2 | [DB]4 [FA]4 | [Ec]4 [FA]2 [^GB]2 | [EAc]8 | [Ec]2 [^FA]2 [EG]2 [DA]2 | %20
 [GB]4 [Gd]4 | [EG]2 [GB]2 [^FA]4 | [DB]4 z2 [EG][DG] | [Ec]2 [Gc]2 [Ec]2 [Bd]2 | [^FA]8 | %25
 [Bd]2 [^FA]2 [B,G]4 | [EG]4 [Ac]2 [Gc]2 | [Ac]2 [DB]2 [EGc]4 :| z8 |] %29
V:3
 G,A, B,2 C2 B,2 | A,2 E,2 E,4 | B,,2 C,2 D,4 | A,2 D,2 E,4 | A,,2 A,4 E,^F, | G,4 A,2 G,2 | %6
 A,4 D,4 |[M:3/2] G,4 G,4 D,4 | E,2 C,2 D,4 E,4 | G,8 D,4 | C,4 E,4 D,4 | z2 D,2 E,2 ^F,2 G,2 A,2 | %12
 B,4 C,4 [D,A,]4 | [G,,G,]12 |][M:4/4] z4 z2 C,2 | C,2 B,,2 A,,2 C,2 | G,4 D,4 | A,4 D,2 E,2 | %18
 A,,6 A,2 | A,2 D,2 E,2 ^F,2 | G,4 B,,4 | C,2 E,2 D,4 | G,,4 z2 C,B,, | A,,2 E,2 A,2 G,2 | D,8 | %25
 G,2 D,2 E,4 | C,4 F,2 E,2 | F,2 G,2 C,4 :| z8 |] %29
V:4
 x8 | x8 | x8 | x8 | x8 | x8 | [EA]4 [^FA]4 |[M:3/2] [GBd]6 [Ad]6 | x12 | x12 | x12 | x12 | %12
 G2 ^F2 E2 F2 G2 F2 | x12 |][M:4/4] x8 | x8 | x8 | x8 | x8 | x8 | x8 | x8 | x8 | x8 | x8 | x8 | %26
 x8 | x8 :| x8 |] %29

